logos/aws-cloudformation_2.svg

<?xml version="1.0" encoding="UTF-8"?>
<svg width="80px" height="80px" viewBox="0 0 80 80" version="1.1" xmlns="http://www.w3.org/2000/svg" xmlns:xlink="http://www.w3.org/1999/xlink">
    <!-- Generator: Sketch 64 (93537) - https://sketch.com -->
    <title>Icon-Architecture/64/Arch_AWS-CloudFormation_64</title>
    <desc>Created with Sketch.</desc>
    <defs>
        <linearGradient x1="0%" y1="100%" x2="100%" y2="0%" id="linearGradient-1">
            <stop stop-color="#B0084D" offset="0%"></stop>
            <stop stop-color="#FF4F8B" offset="100%"></stop>
        </linearGradient>
    </defs>
    <g id="Icon-Architecture/64/Arch_AWS-CloudFormation_64" stroke="none" stroke-width="1" fill="none" fill-rule="evenodd">
        <g id="Icon-Architecture-BG/64/Management-Governance" fill="url(#linearGradient-1)">
            <rect id="Rectangle" x="0" y="0" width="80" height="80"></rect>
        </g>
        <path d="M53,39.9632039 L58,39.9632039 L58,37.9601375 L53,37.9601375 L53,39.9632039 Z M28,51.9816019 L33,51.9816019 L33,49.9785356 L28,49.9785356 L28,51.9816019 Z M18,51.9816019 L25,51.9816019 L25,49.9785356 L18,49.9785356 L18,51.9816019 Z M18,45.9724029 L30,45.9724029 L30,43.9693366 L18,43.9693366 L18,45.9724029 Z M18,33.9540048 L27,33.9540048 L27,31.9509385 L18,31.9509385 L18,33.9540048 Z M18,39.9632039 L51,39.9632039 L51,37.9601375 L18,37.9601375 L18,39.9632039 Z M37,61.9969337 L14,61.9969337 L14,27.9448058 L37,27.9448058 L37,35.9570712 L39,35.9570712 L39,26.9432726 C39,26.3904263 38.552,25.9417395 38,25.9417395 L13,25.9417395 C12.447,25.9417395 12,26.3904263 12,26.9432726 L12,62.9984668 C12,63.5513131 12.447,64 13,64 L38,64 C38.552,64 39,63.5513131 39,62.9984668 L39,42.9678034 L37,42.9678034 L37,61.9969337 Z M68,36.9586044 C68,43.4305117 62.173,45.6819583 59.092,45.9683968 L43,45.9724029 L43,43.9693366 L59,43.9693366 C59.195,43.9463013 66,43.2121775 66,36.9586044 C66,31.2638867 60.863,30.1081175 59.834,29.9338507 C59.321,29.8467173 58.96,29.3820059 59.004,28.8632117 C59.005,28.8441826 59.007,28.826155 59.009,28.8081274 C58.954,25.5902013 56.981,24.584662 56.126,24.3002266 C54.53,23.769414 52.751,24.2771913 51.81,25.5391231 C51.591,25.8355769 51.229,25.9868085 50.861,25.9307226 C50.497,25.8756383 50.192,25.625255 50.068,25.2767214 C49.447,23.5360568 48.546,22.4083304 47.293,21.1534094 C44.159,18.0386412 39.905,17.1783242 35.925,18.8528877 C33.837,19.7332353 32.012,21.7282894 30.922,24.327268 L29.078,23.5500782 C30.37,20.4743699 32.584,18.0887179 35.15,17.007062 C39.905,15.0049972 44.971,16.0255595 48.704,19.7342369 C49.774,20.8068789 50.66,21.851478 51.35,23.2035478 C52.843,22.0978551 54.857,21.7673492 56.757,22.3993166 C59.189,23.2085554 60.727,25.3207889 60.975,28.1290879 C64.381,28.9884034 68,31.7115721 68,36.9586044 L68,36.9586044 Z" id="AWS-CloudFormation_Icon_64_Squid" fill="#FFFFFF"></path>
    </g>
</svg>

<svg width="80" height="80" xmlns="http://www.w3.org/2000/svg">
	<defs>
		<linearGradient x1="0%" y1="100%" x2="100%" y2="0%" id="a">
			<stop stop-color="#B0084D" offset="0%"/>
			<stop stop-color="#FF4F8B" offset="100%"/>
		</linearGradient>
	</defs>
	<g fill="none" fill-rule="evenodd">
		<path d="M0 0h80v80H0z" fill="url(#a)"/>
		<path d="M53 39.963h5V37.96h-5v2.003ZM28 51.982h5v-2.003h-5v2.003Zm-10 0h7v-2.003h-7v2.003Zm0-6.01h12V43.97H18v2.003Zm0-12.018h9v-2.003h-9v2.003Zm0 6.01h33V37.96H18v2.003Zm19 22.033H14V27.945h23v8.012h2v-9.014c0-.553-.448-1.001-1-1.001H13a1 1 0 0 0-1 1.001v36.055A1 1 0 0 0 13 64h25c.552 0 1-.449 1-1.002v-20.03h-2v19.029Zm31-25.038c0 6.472-5.827 8.723-8.908 9.01L43 45.971V43.97h16c.195-.023 7-.757 7-7.01 0-5.695-5.137-6.85-6.166-7.025a1 1 0 0 1-.825-1.126c-.055-3.218-2.028-4.223-2.883-4.508-1.596-.53-3.375-.023-4.316 1.24a1 1 0 0 1-1.742-.262c-.621-1.742-1.522-2.87-2.775-4.125-3.134-3.114-7.388-3.975-11.368-2.3-2.088.88-3.913 2.875-5.003 5.474l-1.844-.777c1.292-3.076 3.506-5.461 6.072-6.543 4.755-2.002 9.821-.981 13.554 2.727 1.07 1.073 1.956 2.117 2.646 3.47 1.493-1.106 3.507-1.437 5.407-.805 2.432.81 3.97 2.922 4.218 5.73 3.406.86 7.025 3.583 7.025 8.83Z" fill="#FFF"/>
	</g>
</svg>
